assets/sonr-icons/link.svg

<svg xmlns="http://www.w3.org/2000/svg" width="24" height="24" fill="none" viewBox="0 0 24 24"><path fill="#000" d="M12.066 4.527C14.114 2.488 17.426 2.492 19.468 4.535C21.514 6.581 21.514 9.899 19.468 11.946L17.706 13.708C17.315 14.099 16.682 14.099 16.292 13.708C15.902 13.317 15.901 12.684 16.292 12.294L18.054 10.532C19.319 9.267 19.319 7.215 18.054 5.95C16.79 4.686 14.743 4.685 13.477 5.945L11.705 7.71C11.313 8.1 10.681 8.099 10.29 7.707C9.89904 7.315 9.90104 6.683 10.293 6.293L12.066 4.527ZM7.70504 10.291C8.09604 10.681 8.09804 11.314 7.70804 11.706L5.94304 13.478C4.68204 14.744 4.68504 16.792 5.94804 18.055C7.21304 19.32 9.26404 19.32 10.53 18.055L12.292 16.293C12.683 15.902 13.316 15.902 13.706 16.293C14.096 16.684 14.097 17.317 13.706 17.708L11.944 19.47C9.89704 21.516 6.58004 21.516 4.53304 19.47C2.49004 17.427 2.48604 14.115 4.52504 12.068L6.29004 10.296C6.68004 9.904 7.31304 9.902 7.70404 10.292L7.70504 10.291Z"/><path fill="#000" d="M14.707 9.29303C15.098 9.68403 15.098 10.317 14.707 10.707L10.707 14.707C10.316 15.098 9.683 15.098 9.293 14.707C8.903 14.316 8.902 13.683 9.293 13.292L13.293 9.29203C13.684 8.90103 14.317 8.90103 14.707 9.29203V9.29303Z"/></svg>

<svg xmlns="http://www.w3.org/2000/svg" width="24" height="24" fill="none"><path fill="currentColor" d="M12.066 4.527a5.24 5.24 0 0 1 7.402 7.419l-1.762 1.762a.999.999 0 1 1-1.414-1.414l1.762-1.762a3.24 3.24 0 0 0-4.577-4.587L11.705 7.71a1 1 0 1 1-1.412-1.417zm-4.361 5.764c.391.39.393 1.023.003 1.415l-1.765 1.772a3.24 3.24 0 0 0 4.587 4.577l1.762-1.762a1.001 1.001 0 0 1 1.414 1.415l-1.762 1.762a5.241 5.241 0 0 1-7.419-7.402l1.765-1.772a1 1 0 0 1 1.414-.004z"/><path fill="currentColor" d="M14.707 9.293a1 1 0 0 1 0 1.414l-4 4a1.001 1.001 0 0 1-1.414-1.415l4-4a1 1 0 0 1 1.414 0z"/></svg>
